X:8
T:Garrett Barry's
M:6/8
R:jig
C:Traditional
K:Dmix
DEF GF/F/G | AGE c2A | dcA d2e | fed cAG |
DEF GF/F/G | AGE cde  dc A GEA | DE/D/D D3 :|
|: dcA d2e | fed efg | dcA c2d | (e/g/e)d ecA |
dcA d2e | fed efg | dcA GEA | DE/D/D D3 :|

